assets/icon-fire.svg

<svg
  class="icon icon-accordion icon-fire"

  focusable="false"
  xmlns="http://www.w3.org/2000/svg"


  viewBox="0 0 20 20"
>
  <path d="M10.289 0.195688L10.0165 0.614868L9.73308 0.202948C9.89985 0.0882083 10.1193 0.085342 10.289 0.195688ZM10.0239 1.22397C10.0059 1.23709 9.98711 1.25084 9.96754 1.2652C9.75267 1.42286 9.44443 1.65462 9.07398 1.94898C8.33229 2.53833 7.34518 3.37545 6.35998 4.36829C5.3731 5.36282 4.39917 6.50258 3.6746 7.69609C2.9476 8.8936 2.49361 10.1091 2.49359 11.265C2.49353 16.0723 6.3863 18.7892 9.86979 18.8827C13.3336 18.9757 17.5064 16.2076 17.5064 11.1715C17.5064 9.95392 17.0516 8.71412 16.3299 7.51857C15.6097 6.32527 14.6416 5.20589 13.6605 4.23874C12.6809 3.27316 11.6994 2.47011 10.9619 1.90808C10.5935 1.62738 10.2871 1.4076 10.0736 1.25854C10.0564 1.24656 10.0399 1.23503 10.0239 1.22397ZM17.1861 7.00182C17.9626 8.28829 18.5064 9.70844 18.5064 11.1716C18.5064 16.8584 13.7772 19.988 9.84295 19.8824C5.92833 19.7773 1.49353 16.7183 1.49359 11.265C1.49361 9.85582 2.04249 8.45751 2.81979 7.17715C3.59952 5.89279 4.63131 4.69065 5.65015 3.66392C6.67066 2.6355 7.68927 1.77201 8.45186 1.16605C8.83356 0.862756 9.1521 0.623199 9.37598 0.45894C9.48794 0.376793 9.5763 0.31343 9.63711 0.270293C9.66752 0.248724 9.69105 0.232207 9.7072 0.220924L9.72585 0.207945L9.73092 0.20444L9.73308 0.202948C9.73308 0.202948 9.73308 0.202948 10.0165 0.614868C10.289 0.195688 10.289 0.195688 10.289 0.195688L10.2913 0.197143L10.2964 0.200494L10.3151 0.21283C10.3313 0.223537 10.3549 0.23919 10.3853 0.259633C10.4461 0.300517 10.5343 0.360582 10.646 0.438599C10.8695 0.594598 11.1873 0.822577 11.568 1.11271C12.3286 1.69232 13.3445 2.52316 14.3625 3.52657C15.3788 4.52841 16.4082 5.71311 17.1861 7.00182Z" />
  <path d="M10.2984 6.53911L10.0101 6.94762L9.71091 6.547C9.88437 6.41747 10.1215 6.41428 10.2984 6.53911ZM10.0177 7.57751C9.89792 7.67445 9.74607 7.80014 9.57119 7.95096C9.12226 8.33812 8.52516 8.88776 7.92971 9.53903C7.33288 10.1918 6.7473 10.9363 6.31312 11.7125C5.87714 12.492 5.61131 13.2722 5.6113 14.0056C5.61126 17.1425 7.75659 18.8851 9.9123 18.8851C12.0924 18.8851 14.3887 17.2093 14.3887 13.9436C14.3887 12.3722 13.2922 10.7471 12.0841 9.45463C11.4927 8.82192 10.8996 8.29519 10.4537 7.92638C10.2836 7.78568 10.1354 7.66842 10.0177 7.57751ZM12.8147 8.77178C14.0459 10.089 15.3887 11.9619 15.3887 13.9436C15.3887 17.7841 12.622 19.8851 9.9123 19.8851C7.17825 19.8851 4.61126 17.6683 4.6113 14.0055C4.61131 13.039 4.95783 12.087 5.44038 11.2243C5.92472 10.3585 6.56383 9.55098 7.19169 8.86426C7.82093 8.17602 8.44852 7.59865 8.9181 7.19368C9.15326 6.99088 9.3497 6.83053 9.48811 6.72031C9.55734 6.66518 9.61212 6.62254 9.65004 6.59335L9.694 6.55974L9.70595 6.55072L9.70932 6.54819L9.71091 6.547C9.71091 6.547 9.71091 6.547 10.0101 6.94762C10.2984 6.53911 10.2984 6.53911 10.2984 6.53911L10.3 6.54029L10.3035 6.54273L10.3155 6.55135L10.3597 6.58331C10.3977 6.61105 10.4525 6.65155 10.5217 6.70398C10.66 6.80882 10.8562 6.9616 11.091 7.1558C11.5599 7.54357 12.1864 8.09964 12.8147 8.77178Z" />
</svg>

<svg xmlns="http://www.w3.org/2000/svg" class="icon icon-accordion icon-fire" viewBox="0 0 20 20"><path d="m10.289.196-.272.419-.284-.412a.5.5 0 0 1 .556-.007m-.265 1.028-.056.041A31.417 31.417 0 0 0 6.36 4.368c-.987.995-1.96 2.135-2.685 3.328-.727 1.198-1.181 2.413-1.181 3.569 0 4.807 3.892 7.524 7.376 7.618 3.464.093 7.636-2.675 7.636-7.711 0-1.218-.454-2.458-1.176-3.653-.72-1.194-1.688-2.313-2.67-3.28a28.6 28.6 0 0 0-3.586-2.98zm7.162 5.778c.777 1.286 1.32 2.706 1.32 4.17 0 5.686-4.729 8.816-8.663 8.71-3.915-.105-8.35-3.164-8.35-8.617 0-1.41.55-2.807 1.327-4.088.78-1.284 1.811-2.486 2.83-3.513A32.4 32.4 0 0 1 9.707.22l.019-.013.005-.004.002-.001.284.412.272-.42.002.002.005.003.02.013a10 10 0 0 1 .33.226 29.569 29.569 0 0 1 3.717 3.088c1.016 1.001 2.045 2.186 2.823 3.475"/><path d="m10.298 6.54-.288.408-.3-.401a.5.5 0 0 1 .588-.008m-.28 1.038A19.612 19.612 0 0 0 7.93 9.54c-.597.652-1.183 1.396-1.617 2.173-.436.779-.702 1.56-.702 2.293 0 3.136 2.146 4.88 4.301 4.88 2.18 0 4.477-1.677 4.477-4.942 0-1.572-1.097-3.197-2.305-4.49a18 18 0 0 0-2.066-1.876m2.797 1.194c1.23 1.317 2.574 3.19 2.574 5.172 0 3.84-2.767 5.941-5.477 5.941-2.734 0-5.3-2.217-5.3-5.88 0-.966.346-1.918.828-2.78.485-.867 1.124-1.674 1.752-2.36A20.6 20.6 0 0 1 9.65 6.592l.044-.033.012-.01.003-.002.002-.001.3.4.287-.408.002.001.003.003.012.008.045.032.162.121a18.739 18.739 0 0 1 2.293 2.068"/></svg>
